X:24
T:My Great Friend John Morris
R:reel
C:Brenda Stubbert
O:Cape Breton Island
S:http://www.cranfordpub.com
D:Music All Around, 2003, The Heart of Cape Breton, Smithsonian Anthology
B:Fiddler Magazine, Cape Breton Edition
Z:psc, (re-formatted,updated 9/19/04)
N:http://www.cranfordpub.com/stubbert
H:                                                        copyrights Stubbert Music, SOCAN
L:1/8
Q:333
M:C|
K:D
dB|ABAF A2 AB|defe d2 dA|BcBA B2 Bb|afed B2 d2|
ABAF A2 AB|defe d2 dA|BcBA Bbaf|edef d2:|
|:fg|abaf a2af|abaf dddf|efed e2 ef|[1g2 fe dBBg|
abaf a2af|abaf dddf|efed egfe|dBAF D/D/D:|
[2 g2 fe dBBd|ABAF A2 AB|defe d2dA|BcBA Bbaf|edef d2|]
